X: 1
T: Pollonesse #1
M: 3/4
L: 1/16
K: D
Q:110
|:d2A2 F2A2 d2f2|f2edc4A4|d2ef g2f2 e2d2|dcBA B2B2 A4|d2A2 F2A2 d2f2|
f2edc4A4|d2ef g2eg f2df| e2ce d8::a2f2 f2d2 d4|a2f2 g4e4|f2ef g2f2 e2d2|
dcBA B2B2A4|a2f2 f2d2 d4|a2f2 g4e4|d2ef g2eg f2df|e2ce d8:|

